assets/Dumpling/Flat/dumpling_flat.svg

<svg width="32" height="32" viewBox="0 0 32 32" fill="none" xmlns="http://www.w3.org/2000/svg">
<path d="M26.67 4.48C26.54 4.37 26.39 4.26 26.22 4.16C25.04 3.48 23.26 4.23 21.97 3.89C20.66 3.54 19.49 2 18.15 2C16.8 2 15.64 3.54 14.33 3.89C13.04 4.23 11.26 3.48 10.08 4.16C8.93 4.82 8.69 6.73 7.71 7.71C6.73 8.69 4.82 8.93 4.16 10.07C3.48 11.25 4.23 13.03 3.89 14.32C3.54 15.63 2 16.8 2 18.15C2 19.5 3.54 20.66 3.89 21.97C4.23 23.26 3.48 25.04 4.16 26.22C4.26 26.39 4.37 26.53 4.48 26.67L4.5 26.69C4.58 26.78 4.66 26.86 4.75 26.94L6.28 28.47C8.38 30.57 11.77 30.57 13.87 28.47L28.48 13.86C30.58 11.76 30.58 8.37 28.48 6.27L26.67 4.48Z" fill="#FFCE7C"/>
<path d="M12.27 11.78C8.79998 15.25 8.79998 20.89 12.27 24.36L15.12 27.21L27.7 14.63L24.85 11.78C21.37 8.29998 15.74 8.29998 12.27 11.78Z" fill="#FFDEA7"/>
<path d="M15.6 8.00002C16.13 7.84002 16.44 7.28002 16.28 6.75002L15.3 3.46002L14.95 3.66002C14.58 3.84002 14.18 3.95002 13.77 4.01002L13.37 4.02002L14.35 7.31002C14.51 7.85002 15.07 8.16002 15.6 8.00002Z" fill="#F3AD61"/>
<path d="M10.73 10.73C10.34 11.12 9.7 11.12 9.31 10.73L6.88 8.31002L7.23 8.10002C7.56 7.86002 7.86 7.56002 8.1 7.23002L8.3 6.88002L10.73 9.31002C11.12 9.70002 11.12 10.34 10.73 10.73Z" fill="#F3AD61"/>
<path d="M7.95999 15.64C7.79999 16.17 7.23999 16.48 6.70999 16.32L3.42999 15.34L3.62999 15C3.80999 14.63 3.91999 14.23 3.97999 13.82L3.98999 13.42L7.27999 14.4C7.80999 14.55 8.11999 15.11 7.95999 15.64Z" fill="#F3AD61"/>
<path d="M7.34999 22.83C7.89999 22.74 8.26999 22.23 8.18999 21.68C8.10999 21.13 7.59999 20.75 7.04999 20.82L3.64999 21.34L3.80999 21.71C3.93999 22.11 3.99999 22.52 3.99999 22.93L3.95999 23.34L7.34999 22.83Z" fill="#F3AD61"/>
<path d="M22.78 7.40001C22.69 7.95001 22.18 8.32001 21.63 8.24001C21.08 8.15001 20.71 7.64001 20.78 7.10001L21.3 3.70001L21.67 3.86001C22.07 3.99001 22.48 4.05001 22.89 4.05001L23.29 4.01001L22.78 7.40001Z" fill="#F3AD61"/>
</svg>

<svg xmlns="http://www.w3.org/2000/svg" width="32" height="32" fill="none"><path fill="#FFCE7C" d="M26.67 4.48c-.13-.11-.28-.22-.45-.32-1.18-.68-2.96.07-4.25-.27C20.66 3.54 19.49 2 18.15 2c-1.35 0-2.51 1.54-3.82 1.89-1.29.34-3.07-.41-4.25.27-1.15.66-1.39 2.57-2.37 3.55-.98.98-2.89 1.22-3.55 2.36-.68 1.18.07 2.96-.27 4.25C3.54 15.63 2 16.8 2 18.15s1.54 2.51 1.89 3.82c.34 1.29-.41 3.07.27 4.25.1.17.21.31.32.45l.02.02c.08.09.16.17.25.25l1.53 1.53a5.36 5.36 0 0 0 7.59 0l14.61-14.61a5.36 5.36 0 0 0 0-7.59l-1.81-1.79Z"/><path fill="#FFDEA7" d="M12.27 11.78c-3.47 3.47-3.47 9.11 0 12.58l2.85 2.85L27.7 14.63l-2.85-2.85c-3.48-3.48-9.11-3.48-12.58 0Z"/><path fill="#F3AD61" d="M15.6 8c.53-.16.84-.72.68-1.25l-.98-3.29-.35.2c-.37.18-.77.29-1.18.35l-.4.01.98 3.29c.16.54.72.85 1.25.69ZM10.73 10.73c-.39.39-1.03.39-1.42 0L6.88 8.31l.35-.21c.33-.24.63-.54.87-.87l.2-.35 2.43 2.43c.39.39.39 1.03 0 1.42ZM7.96 15.64c-.16.53-.72.84-1.25.68l-3.28-.98.2-.34c.18-.37.29-.77.35-1.18l.01-.4 3.29.98c.53.15.84.71.68 1.24ZM7.35 22.83c.55-.09.92-.6.84-1.15a1.02 1.02 0 0 0-1.14-.86l-3.4.52.16.37c.13.4.19.81.19 1.22l-.04.41 3.39-.51ZM22.78 7.4c-.09.55-.6.92-1.15.84-.55-.09-.92-.6-.85-1.14l.52-3.4.37.16c.4.13.81.19 1.22.19l.4-.04-.51 3.39Z"/></svg>
